assets/svgs/github-svgrepo-com.svg

<?xml version="1.0" encoding="utf-8"?><!-- Uploaded to: SVG Repo, www.svgrepo.com, Generator: SVG Repo Mixer Tools -->
<svg width="800px" height="800px" viewBox="0 0 24 24" fill="none" xmlns="http://www.w3.org/2000/svg">
<path d="M9.29183 21V18.4407L9.3255 16.6219C9.36595 16.0561 9.58639 15.5228 9.94907 15.11C9.95438 15.1039 9.95972 15.0979 9.9651 15.0919C9.9791 15.0763 9.96988 15.0511 9.94907 15.0485V15.0485C7.52554 14.746 5.0005 13.7227 5.0005 9.26749C4.9847 8.17021 5.3427 7.10648 6.00437 6.27215C6.02752 6.24297 6.05103 6.21406 6.07492 6.18545V6.18545C6.10601 6.1482 6.11618 6.09772 6.10194 6.05134C6.10107 6.04853 6.10021 6.04571 6.09935 6.04289C6.0832 5.9899 6.06804 5.93666 6.05388 5.88321C5.81065 4.96474 5.86295 3.98363 6.20527 3.09818C6.20779 3.09164 6.21034 3.08511 6.2129 3.07858C6.22568 3.04599 6.25251 3.02108 6.28698 3.01493V3.01493C6.50189 2.97661 7.37036 2.92534 9.03298 4.07346C9.08473 4.10919 9.13724 4.14609 9.19053 4.18418V4.18418C9.22901 4.21168 9.27794 4.22011 9.32344 4.20716C9.32487 4.20675 9.32631 4.20634 9.32774 4.20593C9.41699 4.18056 9.50648 4.15649 9.59617 4.1337C11.1766 3.73226 12.8234 3.73226 14.4038 4.1337C14.4889 4.1553 14.5737 4.17807 14.6584 4.20199C14.6602 4.20252 14.6621 4.20304 14.6639 4.20356C14.7174 4.21872 14.7749 4.20882 14.8202 4.17653V4.17653C14.8698 4.14114 14.9187 4.10679 14.967 4.07346C16.6257 2.92776 17.4894 2.9764 17.7053 3.01469V3.01469C17.7404 3.02092 17.7678 3.04628 17.781 3.07946C17.7827 3.08373 17.7843 3.08799 17.786 3.09226C18.1341 3.97811 18.1894 4.96214 17.946 5.88321C17.9315 5.93811 17.9159 5.9928 17.8993 6.04723V6.04723C17.8843 6.09618 17.8951 6.14942 17.9278 6.18875C17.9289 6.18998 17.9299 6.19121 17.9309 6.19245C17.9528 6.21877 17.9744 6.24534 17.9956 6.27215C18.6573 7.10648 19.0153 8.17021 18.9995 9.26749C18.9995 13.747 16.4565 14.7435 14.0214 15.015V15.015C14.0073 15.0165 14.001 15.0334 14.0105 15.0439C14.0141 15.0479 14.0178 15.0519 14.0214 15.0559C14.2671 15.3296 14.4577 15.6544 14.5811 16.0103C14.7101 16.3824 14.7626 16.7797 14.7351 17.1754V21" stroke="#323232" stroke-width="2" stroke-linecap="round" stroke-linejoin="round"/>
<path d="M4 17C4.36915 17.0523 4.72159 17.1883 5.03065 17.3975C5.3397 17.6068 5.59726 17.8838 5.7838 18.2078C5.94231 18.4962 6.15601 18.7504 6.41264 18.9557C6.66927 19.161 6.96379 19.3135 7.27929 19.4043C7.59478 19.4952 7.92504 19.5226 8.25112 19.485C8.5772 19.4475 8.89268 19.3457 9.17946 19.1855" stroke="#323232" stroke-width="2" stroke-linecap="round" stroke-linejoin="round"/>
</svg>

<svg xmlns="http://www.w3.org/2000/svg" width="800" height="800" fill="none" viewBox="0 0 24 24"><path stroke="#323232" stroke-linecap="round" stroke-linejoin="round" stroke-width="2" d="M9.292 21v-2.56l.034-1.818a2.57 2.57 0 0 1 .64-1.53.026.026 0 0 0-.017-.043v0c-2.423-.303-4.948-1.326-4.948-5.782a4.72 4.72 0 0 1 1.074-3.082v0a.14.14 0 0 0 .024-.142l-.045-.16a4.53 4.53 0 0 1 .159-2.804.1.1 0 0 1 .074-.064v0c.215-.038 1.083-.09 2.746 1.058l.158.111v0a.16.16 0 0 0 .132.023l.005-.001q.133-.038.268-.072a9.75 9.75 0 0 1 5.062.068l.006.002a.18.18 0 0 0 .156-.027v0l.147-.104c1.659-1.145 2.522-1.097 2.738-1.058v0a.1.1 0 0 1 .076.064l.005.013a4.5 4.5 0 0 1 .113 2.955v0a.15.15 0 0 0 .032.145l.065.08A4.72 4.72 0 0 1 19 9.267c0 4.48-2.544 5.477-4.979 5.748v0a.017.017 0 0 0-.01.029l.01.012c.246.274.437.598.56.954.13.372.182.77.154 1.165V21"/><path stroke="#323232" stroke-linecap="round" stroke-linejoin="round" stroke-width="2" d="M4 17a2.45 2.45 0 0 1 1.784 1.208 2.5 2.5 0 0 0 1.495 1.196 2.48 2.48 0 0 0 1.9-.218"/></svg>
